components/images/calendericon.svg

<svg xmlns="http://www.w3.org/2000/svg" width="24" height="24">
  <path d="M9 10H7v2h2v-2m4 0h-2v2h2v-2m4 0h-2v2h2v-2m2-7h-1V1h-2v2H8V1H6v2H5c-1.11 0-2 .9-2 2v14a2 2 0 0 0 2 2h14a2 2 0 0 0 2-2V5a2 2 0 0 0-2-2m0 16H5V8h14v11z"/>
</svg>

<?xml version="1.0" encoding="UTF-8"?><!DOCTYPE svg PUBLIC "-//W3C//DTD SVG 1.1//EN" "http://www.w3.org/Graphics/SVG/1.1/DTD/svg11.dtd"><svg xmlns="http://www.w3.org/2000/svg" xmlns:xlink="http://www.w3.org/1999/xlink" version="1.1" width="24" height="24" viewBox="0 0 24 24"><path d="M9,10H7V12H9V10M13,10H11V12H13V10M17,10H15V12H17V10M19,3H18V1H16V3H8V1H6V3H5C3.89,3 3,3.9 3,5V19A2,2 0 0,0 5,21H19A2,2 0 0,0 21,19V5A2,2 0 0,0 19,3M19,19H5V8H19V19Z" /></svg>
